icons/2_Variations/OpenAI bg.var.svg

<svg width="1024" height="1024" viewBox="0 0 1024 1024" fill="none" xmlns="http://www.w3.org/2000/svg">
<g clip-path="url(#clip0_3_212)">
<path d="M512 1024C794.77 1024 1024 794.77 1024 512C1024 229.23 794.77 0 512 0C229.23 0 0 229.23 0 512C0 794.77 229.23 1024 512 1024Z" fill="#728DBE"/>
<path d="M742.86 463.11C755.09 426.41 750.88 386.2 731.32 352.81C701.91 301.6 642.79 275.26 585.05 287.66C572.355 273.358 556.753 261.931 539.287 254.143C521.821 246.355 502.893 242.385 483.77 242.5C424.75 242.37 372.38 280.37 354.22 336.52C335.477 340.359 317.77 348.156 302.283 359.39C286.797 370.624 273.888 385.035 264.42 401.66C234.79 452.73 241.55 517.111 281.13 560.901C275.086 579.047 272.989 598.275 274.979 617.298C276.969 636.32 283.001 654.698 292.67 671.201C322.08 722.41 381.2 748.75 438.94 736.35C451.631 750.655 467.233 762.083 484.701 769.868C502.168 777.653 521.097 781.616 540.22 781.49C599.28 781.641 651.66 743.611 669.82 687.401C707.74 679.631 740.46 655.901 759.62 622.26C789.22 571.19 782.44 506.86 742.88 463.07L742.86 463.1V463.11ZM540.26 746.281C516.63 746.311 493.74 738.041 475.6 722.901C476.43 722.461 477.86 721.67 478.78 721.1L586.11 659.11C591.6 655.99 594.97 650.151 594.94 643.831V492.52L640.3 518.711C640.79 518.951 641.11 519.421 641.18 519.961V645.26C641.11 700.98 595.99 746.161 540.27 746.271L540.26 746.281ZM323.24 653.591C311.403 633.145 307.14 609.184 311.2 585.91C311.99 586.38 313.39 587.24 314.38 587.81L421.71 649.8C424.387 651.362 427.431 652.186 430.53 652.186C433.629 652.186 436.673 651.362 439.35 649.8L570.38 574.141V626.531C570.41 627.071 570.16 627.59 569.74 627.93L461.25 690.57C412.92 718.4 351.21 701.86 323.26 653.6H323.24V653.591ZM294.99 419.31C306.774 398.838 325.383 383.164 347.56 375.03C347.56 375.96 347.51 377.59 347.51 378.74V502.73C347.48 509.03 350.85 514.87 356.32 517.99L487.35 593.641L441.99 619.831C441.54 620.13 440.96 620.181 440.46 619.961L331.95 557.271C283.73 529.341 267.18 467.64 294.98 419.33L295 419.31H294.99ZM667.68 506.04L536.65 430.38L582.01 404.2C582.46 403.9 583.04 403.85 583.54 404.07L692.05 466.71C740.36 494.62 756.92 556.42 729.01 604.73C717.206 625.175 698.612 640.839 676.46 649V521.3C676.51 515 673.16 509.171 667.7 506.04H667.68ZM712.82 438.09C712.03 437.6 710.63 436.76 709.64 436.19L602.31 374.2C599.633 372.639 596.589 371.815 593.49 371.815C590.391 371.815 587.347 372.639 584.67 374.2L453.64 449.86V397.47C453.61 396.93 453.86 396.41 454.28 396.07L562.77 333.48C611.1 305.6 672.88 322.19 700.74 370.54C712.514 390.958 716.774 414.852 712.78 438.08H712.81L712.82 438.09ZM428.98 531.461L383.6 505.27C383.11 505.03 382.79 504.56 382.72 504.02V378.72C382.75 322.93 428.01 277.72 483.8 277.76C507.4 277.76 530.24 286.05 548.38 301.14C547.55 301.58 546.14 302.37 545.2 302.94L437.87 364.93C435.175 366.46 432.936 368.68 431.384 371.362C429.832 374.044 429.023 377.092 429.04 380.19L428.97 531.43V531.461H428.98ZM453.62 478.33L511.98 444.62L570.34 478.31V545.701L511.98 579.391L453.62 545.701V478.32V478.33Z" fill="white"/>
</g>
<defs>
<clipPath id="clip0_3_212">
<rect width="1024" height="1024" fill="white"/>
</clipPath>
</defs>
</svg>

<svg xmlns="http://www.w3.org/2000/svg" viewBox="0 0 1024 1024">
   <circle cx="512" cy="512" r="512" style="fill:#00f"/>
   <path d="M742.86 463.11c12.23-36.7 8.02-76.91-11.54-110.3-29.41-51.21-88.53-77.55-146.27-65.15a134.34 134.34 0 0 0-101.28-45.16c-59.02-.13-111.39 37.87-129.55 94.02a134.368 134.368 0 0 0-89.8 65.14c-29.63 51.07-22.87 115.45 16.71 159.24a134.263 134.263 0 0 0 11.54 110.3c29.41 51.21 88.53 77.55 146.27 65.15a134.22 134.22 0 0 0 101.28 45.14c59.06.15 111.44-37.88 129.6-94.09 37.92-7.77 70.64-31.5 89.8-65.14 29.6-51.07 22.82-115.4-16.74-159.19l-.02.03Zm-202.6 283.17c-23.63.03-46.52-8.24-64.66-23.38.83-.44 2.26-1.23 3.18-1.8l107.33-61.99c5.49-3.12 8.86-8.96 8.83-15.28V492.52l45.36 26.19c.49.24.81.71.88 1.25v125.3c-.07 55.72-45.19 100.9-100.91 101.01Zm-217.02-92.69a100.584 100.584 0 0 1-12.04-67.68c.79.47 2.19 1.33 3.18 1.9l107.33 61.99a17.501 17.501 0 0 0 17.64 0l131.03-75.66v52.39c.03.54-.22 1.06-.64 1.4l-108.49 62.64c-48.33 27.83-110.04 11.29-137.99-36.97h-.02Zm-28.25-234.28a100.638 100.638 0 0 1 52.57-44.28c0 .93-.05 2.56-.05 3.71v123.99c-.03 6.3 3.34 12.14 8.81 15.26l131.03 75.65-45.36 26.19c-.45.3-1.03.35-1.53.13l-108.51-62.69c-48.22-27.93-64.77-89.63-36.97-137.94l.02-.02Zm372.69 86.73-131.03-75.66 45.36-26.18c.45-.3 1.03-.35 1.53-.13l108.51 62.64c48.31 27.91 64.87 89.71 36.96 138.02A100.998 100.998 0 0 1 676.46 649V521.3c.05-6.3-3.3-12.13-8.76-15.26h-.02Zm45.14-67.95c-.79-.49-2.19-1.33-3.18-1.9L602.31 374.2a17.501 17.501 0 0 0-17.64 0l-131.03 75.66v-52.39c-.03-.54.22-1.06.64-1.4l108.49-62.59c48.33-27.88 110.11-11.29 137.97 37.06a100.956 100.956 0 0 1 12.04 67.54h.03Zm-283.84 93.37-45.38-26.19c-.49-.24-.81-.71-.88-1.25v-125.3c.03-55.79 45.29-101 101.08-100.96 23.6 0 46.44 8.29 64.58 23.38-.83.44-2.24 1.23-3.18 1.8l-107.33 61.99a17.435 17.435 0 0 0-8.83 15.26l-.07 151.24v.03Zm24.64-53.13 58.36-33.71 58.36 33.69v67.39l-58.36 33.69-58.36-33.69v-67.38Z" style="fill:#fff"/>
</svg>
